X:156
T:Philip O'Beirne's Delight (reel) 
B:CRE1.170 (Aoibhneas Philip Ui Bheirn)
F:file ID: cre.1/156phil_ob
Q:180
L:1/8
M:4/4
R:reel
K:D
AG|:FD (3DDD FD (3DDD|EA, ~A2 EA, ~A2|FD (3DDD DFAF|GBec dBAG|
FD (3DDD FD (3DDD|EA,A,G, (3A,B,C DE|(3FGF DF DFAF|GBec d3||
A|d2 eg fdfd|eAce dcBA|d2 eg fedf|eAce dAFA|
d2 eg (3fga fd|(3efg ec dcBA|a3f gfeg|fedf ecAG "_DC"|]

%%%

